src/assets/images/reactions/women/big/love.svg

<svg width="24" height="24" viewBox="0 0 24 24" fill="none" xmlns="http://www.w3.org/2000/svg">
<path fill-rule="evenodd" clip-rule="evenodd" d="M6.28309 1.61395C5.07276 1.76643 4.08794 2.10652 3.19768 2.67948C1.81736 3.5678 0.82583 4.84551 0.332575 6.37144C-0.554817 9.11699 0.323892 11.95 3.08575 15.2477C3.61899 15.8844 5.38378 17.6458 6.14229 18.2985C7.47164 19.4423 8.92884 20.5405 10.436 21.5345C11.8052 22.4376 11.9583 22.4999 12.3608 22.3172C12.6674 22.178 14.4908 20.9525 15.4271 20.2563C17.1201 18.9974 18.3267 17.9594 19.6354 16.6363C22.1303 14.1138 23.4855 11.8992 23.9119 9.64775C24.0296 9.0266 24.0293 7.8277 23.9114 7.23285C23.3528 4.41388 21.2723 2.3234 18.4199 1.71499C17.7869 1.57998 16.4724 1.56967 15.8355 1.69477C14.5424 1.9487 13.4177 2.49972 12.4196 3.36834L12.0092 3.72557L11.5749 3.35068C11.336 3.14448 10.9956 2.87949 10.8185 2.76178C10.0649 2.26104 9.05645 1.85538 8.17562 1.69863C7.76675 1.6259 6.60209 1.57376 6.28309 1.61395Z" fill="#EB3E7D"/>
</svg>

<svg xmlns="http://www.w3.org/2000/svg" width="24" height="24" fill="none">
  <path fill="#EB3E7D" fill-rule="evenodd" d="M6.283 1.614c-1.21.152-2.195.493-3.085 1.065C1.818 3.568.826 4.846.333 6.371c-.888 2.746-.01 5.579 2.753 8.877.533.636 2.298 2.398 3.056 3.05a42.555 42.555 0 0 0 4.294 3.237c1.37.903 1.522.965 1.925.782.306-.139 2.13-1.364 3.066-2.06 1.693-1.26 2.9-2.298 4.208-3.62 2.495-2.523 3.85-4.738 4.277-6.99.118-.62.117-1.82 0-2.414-.56-2.82-2.64-4.91-5.492-5.518-.633-.135-1.948-.145-2.585-.02a7.202 7.202 0 0 0-3.415 1.673l-.41.358-.435-.375a9.558 9.558 0 0 0-.756-.59A7.447 7.447 0 0 0 8.175 1.7c-.41-.073-1.574-.125-1.893-.085Z" clip-rule="evenodd"/>
</svg>
